X:1
T:Title
%%score ( 1 2 ) { 3 | 4 }
L:1/8
Q:1/4=127
M:3/4
K:C
V:1 treble nm="Grand Piano, Staff 1"
V:2 treble 
V:3 bass nm="Choir Pad, Melrose, LM"
V:4 bass 
V:1
 C2 E2 G2 | c4 G2 | [GB]4 [FA]2 | [EG]6 | [CE]2 [CE]2 [B,D]2 | C4 [B,D]2 | [CE]4 [D^F]2 | %7
w: By~Frederick~Charles~Maker~(1844\-1927) * *|||||||
 G4- [FG]2 | [EG]2 [CE]2 C2 | [CA]4 [^CA]2 | A2 ^F2 D2 | d4- [Gd]2 | [Gc]2 [GB]2 [FA]2 | [EG]4 C2 | %14
w: |||||||
 [B,E]4 [B,D]2 | C6- | C2 z2 z2 |] %17
w: |||
V:2
 x6 | x6 | x6 | x6 | x6 | x6 | x6 | D4 z2 | x6 | x6 | D4 z2 | D4 z2 | x6 | x6 | x6 | x6 | x6 |] %17
V:3
 C,2 E,2 G,2 | C4 C2 | C4 CD | E6 | G,2[K:bass] G,2 G,2 | G,4 G,2 | G,4[K:treble] C2 | B,2 C2 D2 | %8
 C2[K:bass] G,2 _B,2 | A,4 G,2 | ^F,2 A,2[K:treble] C2 | B,4 D2 | C2 C2 C2 | C4[K:bass] ^F,2 | %14
 G,4 F,2 | E,6- | E,2 z2 z2 |] %17
V:4
 z6 | z2 z2 E,2 | F,3 G, A,B, | C6 | C,2 z2 F,2 | E,4 D,2 | C,2 B,,2 A,,2 | G,,2 A,,2 B,,2 | %8
 C,2 C,2 E,2 | F,4 E,2 | D,4 ^F,2 | G,4 F,2 | E,2 E,2 E,2 | C,4 A,,2 | G,,4 G,,2 | C,6- | %16
 C,2 z2 z2 |] %17

